icons/linear-ele-tool-edit-outline.svg

<svg xmlns="http://www.w3.org/2000/svg" width="32px" height="32px" viewBox="0 0 32 32" version="1.1">
    <title>linear-ele-tool-edit-outline</title>
    <g id="linear-ele-tool-edit-outline" stroke-width="1" fill-rule="evenodd">
        <path d="M19.343,3.99967966 L17.343,5.99967966 L6,6 L6,26 L26,26 L26,14.6556797 L28,12.6556797 L28,27 C28,27.5522847 27.5522847,28 27,28 L5,28 C4.44771525,28 4,27.5522847 4,27 L4,5 C4,4.44771525 4.44771525,4 5,4 L19.343,3.99967966 Z M28.2071068,3.79289322 C29.4260582,5.01184464 29.4260582,6.98815536 28.2071068,8.20710678 L18.2071068,18.2071068 C18.0541099,18.3601036 17.8556169,18.4593501 17.6414214,18.4899495 L14.1414214,18.9899495 C13.481455,19.0842304 12.9157696,18.518545 13.0100505,17.8585786 L13.5100505,14.3585786 C13.5406499,14.1443831 13.6398964,13.9458901 13.7928932,13.7928932 L23.7928932,3.79289322 C25.0118446,2.5739418 26.9881554,2.5739418 28.2071068,3.79289322 Z M25.2071068,5.20710678 L15.442,14.972 L15.177,16.822 L17.027,16.557 L26.7928932,6.79289322 C27.1995173,6.38626916 27.2285619,5.74504729 26.8800269,5.30490925 L26.7928932,5.20710678 C26.3549904,4.76920395 25.6450096,4.76920395 25.2071068,5.20710678 Z" id="&#24418;&#29366;" fill-rule="nonzero" />
    </g>
</svg>

<svg xmlns="http://www.w3.org/2000/svg" viewBox="0 0 32 32"><path fill="currentColor" d="m19.343 4-2 2H6v20h20V14.656l2-2V27a1 1 0 0 1-1 1H5a1 1 0 0 1-1-1V5a1 1 0 0 1 1-1zm8.864-.207a3.121 3.121 0 0 1 0 4.414l-10 10a1 1 0 0 1-.566.283l-3.5.5a1 1 0 0 1-1.13-1.131l.5-3.5a1 1 0 0 1 .282-.566l10-10a3.121 3.121 0 0 1 4.414 0m-3 1.414-9.765 9.765-.265 1.85 1.85-.265 9.766-9.764a1.122 1.122 0 0 0 .087-1.488l-.087-.098a1.121 1.121 0 0 0-1.586 0"/></svg>
